X: 19010
T: Intercity Utrecht
R: reel
M: 4/4
K: Dmajor
|:BGGB ABcA|d3f edef|~g3e fedf|edcB ABcA|
BGGB ABcA|d2fd edef|~a3f gfed|1 cABc d4:|2 cABc defa||
|:~b3f afbf|f2bf afed|cABc d3f|gfed efaf|
~b3f afbf|f2df edcA|BGGB ABcA|1 dfec defa:|2 dfec d4||

